tetrification/src/assets/images/navbar/logo.svg

<svg width="70" height="50" viewBox="0 0 70 50" fill="none" xmlns="http://www.w3.org/2000/svg">
<path d="M6.61952 1H68.73L63.1349 7.773H1L6.61952 1Z" fill="#E2D2FF"/>
<rect x="1" y="7.77344" width="62.135" height="20.6135" fill="#E2D2FF"/>
<rect x="21.6133" y="28.3867" width="20.6135" height="20.6135" fill="#E2D2FF"/>
<path d="M42.2266 28.3867H47.7496V42.2502L42.2266 49.0002V28.3867Z" fill="#E2D2FF"/>
<path d="M63.1348 28.3865V7.7454L68.7299 1V21.6135L63.1348 28.3865Z" fill="#E2D2FF"/>
<path d="M1 7.75V28.375H21.75M1 7.75L63.125 7.875M1 7.75L6.625 1H68.875M63.125 28.375V7.875M63.125 28.375L68.75 21.625L68.875 1M63.125 28.375H42.125M63.125 7.875L68.875 1" stroke="#8456D6"/>
<path d="M21.625 28.2607V49.0002H42.25M42.25 49.0002V28.2607M42.25 49.0002L47.75 42.2502V28.3752" stroke="#8456D6"/>
</svg>

<svg xmlns="http://www.w3.org/2000/svg" width="70" height="50" fill="none"><path fill="#E2D2FF" d="M6.62 1h62.11l-5.595 6.773H1L6.62 1ZM1 7.773h62.135v20.613H1zM21.613 28.387h20.613V49H21.613zM42.227 28.387h5.523V42.25L42.227 49V28.387Z"/><path fill="#E2D2FF" d="M63.135 28.387V7.745L68.73 1v20.613l-5.595 6.774Z"/><path stroke="#8456D6" d="M1 7.75v20.625h20.75M1 7.75l62.125.125M1 7.75 6.625 1h62.25m-5.75 27.375v-20.5m0 20.5 5.625-6.75L68.875 1m-5.75 27.375h-21m21-20.5L68.875 1"/><path stroke="#8456D6" d="M21.625 28.26V49H42.25m0 0V28.26m0 20.74 5.5-6.75V28.375"/></svg>
